X:1
T:Rimsky-Korsakov harmonic exercises
T:Rimsky-Korsakov harmonic exercises 1-7
T:"Practical Manual of Harmony" (1885)
T:Realizations by S. Shchetnikov
%%score { ( 1 2 ) | ( 3 4 ) }
L:1/8
Q:1/2=90
M:4/4
K:C
V:1 treble nm="Piano" snm="Pno."
V:2 treble 
V:3 bass 
V:4 bass 
V:1
"""^Triads I-IV and I-V""^Example 1 by Rimsky-Korsakov:""_C:" G4 c4 |"" c4 A4 |"" c4"" B4 | %3
"" c4 e4 |"" f4"" e4 |"" d4"" c4 |"" B4 d4 |"" c8 |][K:F]"^Exercise 1.1" F4 c4 | d4 c4 | c4 G4 | %11
 A4 G4 | A4 B4 | c4 A4 | G4 c4 | A8 |]"""^Realization 1.1""_F:" F4 c4 |"" d4"" c4 |"" c4 G4 | %19
"" A4"" G4 |"" A4"" B4 |"" c4 A4 |"" G4 c4 |"" A8 |][K:Bb]"^Exercise 1.2" G4 A4 | B4 d4 | c8 | %27
 B4 A4 | B4 c4 | d4 c4 | B4 A4 | G8 |]"""^Realization 1.2""_g:" G4"" A4 |"" B4 d4 |"" c8 | %35
"" B4"" A4 |"" B4"" c4 |"" d4"" c4 |"" B4"" A4 |"" G8 |] %40
[K:C][M:3/2]"""^Example 2 by Rimsky-Korsakov:""_a:" A4"" B4"" c4 |"" B4 e4 B4 |"" c4"" d4"" c4 | %43
"" B4"" A4"" ^G4 |"" A4 c4 A4 |"" A4 d4"" c4 |"" d4"" c4"" B4 |"" A12 |] %48
[K:Bb][M:4/4]"^Exercise 2.1" z8 | z8 | z8 | z8 | z8 | z8 | z8 | z8 |] %56
"""^Realization 2.1""_B♭:" F4"" G4 |"" F4 B4 |"" G4 B4 |"" d4 B4 |"" c4"" d4 |"" c4 f4 | %62
"" d4"" c4 |"" B8 |][K:D]"^Exercise 2.2" z8 | z8 | z8 | z8 | z8 | z8 | z8 | z8 |] %72
"""^Realization 2.2""_b:" d4"" c4 |"" B4 d4 |"" c4 ^A4 |"""" B8 |"" B4 d4 |"" e4 B4 |"" d4"" c4 | %79
"" B8 |][K:C]"""^Example 3 by Rimsky-Korsakov:""^Triads IV-V""_C:" c4"" B4 |"" c4"" A4 |"" G4 d4 | %83
"" c4 e4 |"" f4"" d4 |"" e4"" f4 |"" e4"" d4 |"" c8 |][K:D]"^Exercise 3.1" z8 | z8 | z8 | z8 | z8 | %93
 z8 | z8 | z8 |]"""^Realization 3.1""_D:" A4"" B4 |"" A4"" F4 |"" G4"" A4 |"" B4"" A4 |"" A4 d4 | %101
"" d4"" f4 |"" g4"" e4 |"" d8 |][K:Eb][M:3/2]"^Exercise 3.2" z12 | z12 | z12 | z12 | z12 | z12 | %110
 z12 | z12 |]"""^Realization 3.2""_c:" c4"" A4"" c4 |"" =B8"" c4 |"" c4 f4"" d4 |"" e4"" a4 f4 | %116
"" d4 g4"" e4 |"" c4"" e4"" d4 |"""" c8"" =B4 |"" c12 |] %120
[K:C][M:4/4]"""^Sixth chords I⁶, V⁶, IV⁶""^Example 4 by Rimsky-Korsakov:" A4 c4 |"" B4"" c4 | %122
"" A4"" d4 |"" c4"" B4 |"" c4"" A4 |"" ^G4"" e4 |"" c4"" B4 |"" A8 |][K:G]"^Exercise 4.1" z8 | z8 | %130
 z8 | z8 | z8 | z8 | z8 | z8 |]"""^Realization 4.1""_G:" B4"" G4 |"" F4"" A4 |"" B4"" c4 | %139
"" d4 B4 |"" c4"" e4 |"" d4"" c4 |"" G4"" A4 |"" G8 |] %144
[K:C]"""^Example 5 by Rimsky-Korsakov:""_C:" e4"" g4 |"" f4"" d4 |"" e4"" d4 |"""" c8 |"" B4"" d4 | %149
"" c4"" A4 |"" c4"" B4 |"" c8 |][K:A][M:3/2]"^Exercise 5.1" z12 | z12 | z12 | z12 | z12 | z12 | %158
 z12 | z12 |]"""^Realization 5.1""_A:" c4"" d4"" B4 |"" e4"" f4"" d4 |"" c4"" B4"" c4 | %163
"" d4"" e4"" c4 |"" B4"" A4"" c4 |"" d4"" e4"" B4 |"" c4"" d4"" B4 |"" A12 |] %168
[K:C][M:4/4]"""^Example 6 by Rimsky-Korsakov:""_a:" c4"" e4 |"""" d8 |"" e4 B4 |"" c4"" d4 | %172
"" B4"" c4 |"" A4"" F4 |"" E4 ^G4 |"" A8 |][K:Bb]"^Exercise 6.1" z8 | z8 | z8 | z8 | z8 | z8 | z8 | %183
 z8 |]"""""^Realization 6.1""_B♭:" d8 |"" c4"" f4 |"" e4"" c4 |"""" B8 |"" c4"" d4 |"" e4"" c4 | %190
"" B4"" G4 |"" B8 |][K:G]"^Exercise 7.1" d4 c4 | d4 B4 | A4 F4 | G4 B4 | c4 e4 | d4 B4 | c4 A4 | %199
 G8 |]"""^Realization 7.1""_G:" d4"" c4 |"" d4"" B4 |"" A4"" F4 |"" G4 B4 |"" c4"" e4 |"" d4"" B4 | %206
"" c4"" A4 |"" G8 |] %208
V:2
 E8 | F4 C4 | E4 D4 | E4 G4 | A4 G4 | G4 E4 | D4 G4 | E8 |][K:F] x8 | x8 | x8 | x8 | x8 | x8 | x8 | %15
 x8 |] C4 F4 | F8 | E8 | F4 E4 | F8 | A4 F4 | E4 G4 | F8 |][K:Bb] x8 | x8 | x8 | x8 | x8 | x8 | %30
 x8 | x8 |] D4 ^F4 | G4 B4 | G8 | G4 ^F4 | G8 | B4 G4 | G4 ^F4 | D8 |][K:C][M:3/2] E4 ^G4 A4 | %41
 ^G12 | A12 | ^G4 E8 | E8 C4 | D4 F4 E4 | F4 E8 | C12 |][K:Bb][M:4/4] x8 | x8 | x8 | x8 | x8 | x8 | %54
 x8 | x8 |] D4 E4 | D4 F4 | E8 | F8 | A4 B4 | A8 | F4 F4 | D8 |][K:D] x8 | x8 | x8 | x8 | x8 | x8 | %70
 x8 | x8 |] F8 | D4 F4 | F8 | F4 G4 | F4 B4 | B4 G4 | B4 ^A4 | F8 |][K:C] G8 | G4 F4 | D4 G4 | %83
 E4 G4 | A4 G4 | G4 A4 | G8 | E8 |][K:D] x8 | x8 | x8 | x8 | x8 | x8 | x8 | x8 |] F4 G4 | E4 D4 | %98
 D4 F4 | G4 E4 | F8 | G4 A4 | B4 A4 | F8 |][K:Eb][M:3/2] x12 | x12 | x12 | x12 | x12 | x12 | x12 | %111
 x12 |] G4 F4 G4 | G12 | A4 c4 =B4 | c8 A4 | G4 =B4 G4 | F4 G8 | E4 F4 D4 | E12 |][K:C][M:4/4] E8 | %121
 E8 | D8 | E8 | E8 | E8 | E8 | C8 |][K:G] x8 | x8 | x8 | x8 | x8 | x8 | x8 | x8 |] G4 D4 | D8 | %138
 D4 E4 | G8 | G8 | G8 | G4 F4 | D8 |][K:C] G8 | A4 G4 | G8 | E4 F4 | G8 | G4 F4 | G8 | G8 |] %152
[K:A][M:3/2] x12 | x12 | x12 | x12 | x12 | x12 | x12 | x12 |] A8 G4 | A12 | A4 G4 A4 | A4 B4 A4 | %164
 G4 A4 A4 | A4 G4 E4 | E4 D4 E4 | C12 |][K:C][M:4/4] E8 | F4 A4 | ^G4 E4 | E4 D4 | E8 | D8 | %174
 B,4 E4 | E8 |][K:Bb] x8 | x8 | x8 | x8 | x8 | x8 | x8 | x8 |] B8 | A4 B4 | B4 A4 | F4 G4 | F8 | %189
 E4 F4 | F4 E4 | F8 |][K:G] x8 | x8 | x8 | x8 | x8 | x8 | x8 | x8 |] G8 | F4 D4 | D8 | D4 G4 | G8 | %205
 A4 G4 | G4 F4 | D8 |] %208
V:3
 C4 G,4 | A,4 F,4 | G,8 | G,4 C4 | C8 | B,4 G,4 | G,4 B,4 | G,8 |][K:F] z8 | z8 | z8 | z8 | z8 | %13
 z8 | z8 | z8 |] A,8 | B,4 A,4 | G,4 C4 | C8 | C4 D4 | F4 C4 | C4 E4 | C8 |][K:Bb] z8 | z8 | z8 | %27
 z8 | z8 | z8 | z8 | z8 |] B,4 D4 | D4 G4 | E8 | D8 | D4 E4 | G4 E4 | D8 | B,8 |] %40
[K:C][M:3/2] C4 E8 | E4 B,4 E4 | E4 F4 E4 | E4 C4 B,4 | C4 A,4 E,4 | F,4 A,8- | A,8 ^G,4 | A,12 |] %48
[K:Bb][M:4/4] B,,4 E,4 | B,,8 | E,8 | B,,4 B,4 | F,4 B,,4 | F,8 | B,,4 F,4 | B,,8 |] B,8 | B,4 D4 | %58
 B,4 G,4 | B,4 D4 | F8 | F4 C4 | B,4 A,4 | B,8 |][K:D] B,,4 F,4 | B,4 B,,4 | F,8 | B,,4 E,4 | %68
 B,,4 B,4 | E,8 | B,,4 F,4 | B,,8 |] B,4 ^A,4 | B,8 | ^A,4 C4 | D4 E4 | D4 F4 | G4 E4 | F8 | D8 |] %80
[K:C] E4 D4 | E4 C4 | B,8 | C8 | C4 B,4 | C8 | C4 B,4 | C8 |][K:D] D,4 G,4 | A,4 D,4 | G,4 D,4 | %91
 G,4 A,4 | D,8 | G,4 D,4 | G,4 A,4 | D,8 |] D8 | C4 A,4 | B,4 D4 | D4 C4 | D4 A,4 | B,4 D4 | %102
 D4 C4 | A,8 |][K:Eb][M:3/2] C,4 F,4 C,4 | G,4 G,,4 C,4 | F,,8 G,,4 | C,4 F,,4 F,4 | G,8 C,4 | %109
 F,4 C,4 G,4 | C,4 F,4 G,4 | C,12 |] E4 C4 E4 | D8 E4 | F4 A4 G4 | G4 F4 C4 | =B,4 D4 C4 | %117
 A,4 C4 =B,4 | G,4 A,4 G,4 | G,12 |][K:C][M:4/4] C4 A,4 | B,4 A,4 | F,4 A,4 | A,4 B,4 | A,8 | B,8 | %126
 A,4 ^G,4 | A,8 |][K:G] G,,4 B,,4 | D,4 F,,4 | G,,4 C,4 | G,,4 G,4 | E,4 C,4 | B,,4 C,4 | %134
 B,,4 D,4 | G,,8 |] G,8 | A,8 | G,8 | B,4 D4 | C8 | D4 E4 | D8 | B,8 |][K:C] C8 | C4 D4 | C4 B,4 | %147
 C8 | D8 | E4 C4 | C4 D4 | E8 |][K:A][M:3/2] A,4 F,4 E,4 | C,4 D,4 F,4 | A,4 E,4 A,,4 | %155
 D,4 G,,4 A,,4 | E,4 C,4 A,,4 | F,4 E,4 G,4 | A,4 F,4 E,4 | A,,12 |] E4 D4 E4 | E4 D8 | E12 | %163
 F4 E8 | E12 | D4 B,8 | A,4 A,4 G,4 | A,12 |][K:C][M:4/4] A,8 | A,8 | B,4 ^G,4 | A,4 A,4 | %172
 B,4 A,4 | A,8 | ^G,4 B,4 | C8 |][K:Bb] B,,4 D,4 | F,4 D,4 | E,4 F,4 | D,4 E,4 | A,,4 B,,4 | %181
 G,,4 A,,4 | B,,4 E,4 | B,,8 |] F8 | F8 | G4 F4 | F4 E4 | C4 B,4 | B,4 C4 | D4 B,4 | D8 |] %192
[K:G] z8 | z8 | z8 | z8 | z8 | z8 | z8 | z8 |] B,4 C4 | A,4 B,4 | D4 A,4 | B,4 D4 | C8 | D8 | %206
 E4 D4 | B,8 |] %208
V:4
 C,8 | F,4 F,,4 | C,4 G,,4 | C,8 | F,,4 C,4 | G,,4 C,4 | G,4 G,,4 | C,8 |][K:F] x8 | x8 | x8 | x8 | %12
 x8 | x8 | x8 | x8 |] F,8 | B,,4 F,,4 | C,8 | F,4 C,4 | F,4 B,,4 | F,,8 | C,8 | F,8 |][K:Bb] x8 | %25
 x8 | x8 | x8 | x8 | x8 | x8 | x8 |] G,4 D,4 | G,,8 | C,8 | G,4 D,4 | G,,4 C,4 | G,,4 C,4 | %38
 G,4 D,4 | G,,8 |][K:C][M:3/2] A,,4 E,4 A,,4 | E,12 | A,,4 D,4 A,,4 | E,4 A,4 E,4 | A,,12 | %45
 D,8 A,,4 | D,4 A,,4 E,4 | A,,12 |][K:Bb][M:4/4] x8 | x8 | x8 | x8 | x8 | x8 | x8 | x8 |] %56
 B,,4 E,4 | B,,8 | E,8 | B,,4 B,4 | F,4 B,,4 | F,8 | B,,4 F,4 | B,,8 |][K:D] x8 | x8 | x8 | x8 | %68
 x8 | x8 | x8 | x8 |] B,,4 F,4 | B,4 B,,4 | F,8 | B,,4 E,4 | B,,4 B,4 | E,8 | B,,4 F,4 | B,,8 |] %80
[K:C] C,4 G,4 | C,4 F,4 | G,8 | C,8 | F,4 G,4 | C,4 F,4 | C,4 G,4 | C,8 |][K:D] x8 | x8 | x8 | x8 | %92
 x8 | x8 | x8 | x8 |] D,4 G,4 | A,4 D,4 | G,4 D,4 | G,4 A,4 | D,8 | G,4 D,4 | G,4 A,4 | D,8 |] %104
[K:Eb][M:3/2] x12 | x12 | x12 | x12 | x12 | x12 | x12 | x12 |] C,4 F,4 C,4 | G,4 G,,4 C,4 | %114
 F,,8 G,,4 | C,4 F,,4 F,4 | G,8 C,4 | F,4 C,4 G,4 | C,4 F,4 G,4 | C,12 |][K:C][M:4/4] A,,8 | %121
 ^G,,4 A,,4 | D,4 F,4 | A,4 ^G,4 | A,4 C,4 | E,4 ^G,,4 | A,,4 E,4 | A,,8 |][K:G] x8 | x8 | x8 | %131
 x8 | x8 | x8 | x8 | x8 |] G,,4 B,,4 | D,4 F,,4 | G,,4 C,4 | G,,4 G,4 | E,4 C,4 | B,,4 C,4 | %142
 B,,4 D,4 | G,,8 |][K:C] C,4 E,4 | F,4 B,,4 | C,4 G,4 | C,4 A,4 | G,4 B,,4 | C,4 F,4 | E,4 G,4 | %151
 C,8 |][K:A][M:3/2] x12 | x12 | x12 | x12 | x12 | x12 | x12 | x12 |] A,4 F,4 E,4 | C,4 D,4 F,4 | %162
 A,4 E,4 A,,4 | D,4 G,,4 A,,4 | E,4 C,4 A,,4 | F,4 E,4 G,4 | A,4 F,4 E,4 | A,,12 |] %168
[K:C][M:4/4] A,4 C,4 | D,4 F,4 | E,8 | A,4 ^F,4 | ^G,4 A,4 | F,4 D,4 | E,8 | A,,8 |][K:Bb] x8 | %177
 x8 | x8 | x8 | x8 | x8 | x8 | x8 |] B,,4 D,4 | F,4 D,4 | E,4 F,4 | D,4 E,4 | A,,4 B,,4 | %189
 G,,4 A,,4 | B,,4 E,4 | B,,8 |][K:G] x8 | x8 | x8 | x8 | x8 | x8 | x8 | x8 |] G,4 E,4 | D,4 G,4 | %202
 F,4 D,4 | G,8 | E,4 C4 | F,4 G,4 | C,4 D,4 | G,8 |] %208

